svg/archwing.svg

<svg xmlns="http://www.w3.org/2000/svg" width="256" height="256" viewBox="0 0 64 64">
    <path d="M23.89 10.62c1.05-1.87 2.03-3.78 3.16-5.61-.13.72-.4 2.17-.54 2.89.93 1.17 2.04 2.17 3.2 3.1.28.63.83 1.88 1.1 2.51q-.075 1.545-.12 3.09c-.26 4.47-2.37 8.82-5.76 11.8.41-3.16 1.36-6.24-.01-9.33 1.65-1.94.85-3.36-1.26-4.21 1.68.05 3.32.39 4.8 1.21-1.42-1.93-3.66-3.14-4.57-5.45m13.87-3.01c-.32-.97-.63-1.94-.91-2.92 1.17 2.08 3.05 4.14 3.07 6.65-.97 1.98-3.03 3.08-4.44 4.69 1.24-.28 3.72-.83 4.97-1.11-.66.4-1.97 1.19-2.63 1.58.53.81 1.06 1.62 1.59 2.42-.7 2.12-1.75 4.45-.51 6.6.02.72.06 2.16.07 2.88-2.74-3.05-5.2-6.73-5.31-10.96l-.57-1.05c.2-.28.6-.82.8-1.09-.24-.47-.71-1.4-.94-1.86 1.18-2.28 3.17-3.9 4.81-5.83m4.36 4c.29.6.86 1.79 1.15 2.39 1.2-.01 2.39-.01 3.59-.02 1.76 2.45 6.18 3.95 5.33 7.46 2.21 4.21 3.55 8.81 5.76 13.03.24 3.36-.51 6.97 1.17 10.07.18-3.29-.02-6.58-.06-9.87.9-1.4 1.72-2.85 2.53-4.3 3.29 4.63.18 10.49.43 15.64.3 2.99-.89 5.7-2.39 8.19-2.5-.75-4.91-1.73-7.41-2.46-2.75-9.94-5.79-19.81-8.42-29.79-.33-1.4-1.5-2.36-2.42-3.39.67-2.26.84-4.61.74-6.95m-24.84 2.45c1.78-.02 3.74.14 4.77-1.65-.15 2.05-.07 4.14.85 6.01-.92.97-2 1.89-2.4 3.22-2.93 10.04-5.62 20.16-8.71 30.16-2.48.48-4.71 1.91-7.23 2.17-3.11-3.64-2.24-8.68-2.88-13.06-.42-3.54-1.73-7.59.83-10.65.74 1.44 1.51 2.87 2.45 4.19.27 3.32-.71 6.89.83 9.99.36-3.13.02-6.29.33-9.41 1.67-5.31 5.19-10.13 5.79-15.7 1.73-1.82 3.54-3.56 5.37-5.27m10.12 35.4c1.98-8.59 2.6-17.53 5.45-25.88.44 8.97 3.29 17.64 4.21 26.56-1.82 2.69-3.22 5.64-4.6 8.58-1.88-2.98-3.52-6.1-5.06-9.26m-7.43-10.4c2.58-3.1 5.18-6.19 7.7-9.34-.63 3.79-1.48 7.57-1.75 11.42-1.55.93-3.13 1.79-4.72 2.63-.31-1.6-.73-3.17-1.23-4.71m16.74-8.91c2.58 2.81 4.75 5.98 7.44 8.7-.48 1.61-.96 3.22-1.42 4.83-1.59-.86-3.16-1.74-4.69-2.69.09-3.67-1.11-7.19-1.33-10.84"/>
</svg>

<svg width="256px" height="256px" viewBox="0 0 64 64" version="1.1" xmlns="http://www.w3.org/2000/svg"><path d=" M 23.89 10.62 C 24.94 8.75 25.92 6.84 27.05 5.01 C 26.92 5.73 26.65 7.18 26.51 7.90 C 27.44 9.07 28.55 10.07 29.71 11.00 C 29.99 11.63 30.54 12.88 30.81 13.51 C 30.76 14.54 30.72 15.57 30.69 16.60 C 30.43 21.07 28.32 25.42 24.93 28.40 C 25.34 25.24 26.29 22.16 24.92 19.07 C 26.57 17.13 25.77 15.71 23.66 14.86 C 25.34 14.91 26.98 15.25 28.46 16.07 C 27.04 14.14 24.80 12.93 23.89 10.62 Z" /><path d=" M 37.76 7.61 C 37.44 6.64 37.13 5.67 36.85 4.69 C 38.02 6.77 39.90 8.83 39.92 11.34 C 38.95 13.32 36.89 14.42 35.48 16.03 C 36.72 15.75 39.20 15.20 40.45 14.92 C 39.79 15.32 38.48 16.11 37.82 16.50 C 38.35 17.31 38.88 18.12 39.41 18.92 C 38.71 21.04 37.66 23.37 38.90 25.52 C 38.92 26.24 38.96 27.68 38.97 28.40 C 36.23 25.35 33.77 21.67 33.66 17.44 L 33.09 16.39 C 33.29 16.11 33.69 15.57 33.89 15.30 C 33.65 14.83 33.18 13.90 32.95 13.44 C 34.13 11.16 36.12 9.54 37.76 7.61 Z" /><path d=" M 42.12 11.61 C 42.41 12.21 42.98 13.40 43.27 14.00 C 44.47 13.99 45.66 13.99 46.86 13.98 C 48.62 16.43 53.04 17.93 52.19 21.44 C 54.40 25.65 55.74 30.25 57.95 34.47 C 58.19 37.83 57.44 41.44 59.12 44.54 C 59.30 41.25 59.10 37.96 59.06 34.67 C 59.96 33.27 60.78 31.82 61.59 30.37 C 64.88 35.00 61.77 40.86 62.02 46.01 C 62.32 49.00 61.13 51.71 59.63 54.20 C 57.13 53.45 54.72 52.47 52.22 51.74 C 49.47 41.80 46.43 31.93 43.80 21.95 C 43.47 20.55 42.30 19.59 41.38 18.56 C 42.05 16.30 42.22 13.95 42.12 11.61 Z" /><path d=" M 17.28 14.06 C 19.06 14.04 21.02 14.20 22.05 12.41 C 21.90 14.46 21.98 16.55 22.90 18.42 C 21.98 19.39 20.90 20.31 20.50 21.64 C 17.57 31.68 14.88 41.80 11.79 51.80 C 9.31 52.28 7.08 53.71 4.56 53.97 C 1.45 50.33 2.32 45.29 1.68 40.91 C 1.26 37.37 -0.05 33.32 2.51 30.26 C 3.25 31.70 4.02 33.13 4.96 34.45 C 5.23 37.77 4.25 41.34 5.79 44.44 C 6.15 41.31 5.81 38.15 6.12 35.03 C 7.79 29.72 11.31 24.90 11.91 19.33 C 13.64 17.51 15.45 15.77 17.28 14.06 Z" /><path d=" M 27.40 49.46 C 29.38 40.87 30.00 31.93 32.85 23.58 C 33.29 32.55 36.14 41.22 37.06 50.14 C 35.24 52.83 33.84 55.78 32.46 58.72 C 30.58 55.74 28.94 52.62 27.40 49.46 Z" /><path d=" M 19.97 39.06 C 22.55 35.96 25.15 32.87 27.67 29.72 C 27.04 33.51 26.19 37.29 25.92 41.14 C 24.37 42.07 22.79 42.93 21.20 43.77 C 20.89 42.17 20.47 40.60 19.97 39.06 Z" /><path d=" M 36.71 30.15 C 39.29 32.96 41.46 36.13 44.15 38.85 C 43.67 40.46 43.19 42.07 42.73 43.68 C 41.14 42.82 39.57 41.94 38.04 40.99 C 38.13 37.32 36.93 33.80 36.71 30.15 Z" /></svg>
